src/components/assets/images/cross.svg

<svg width="30" height="30" viewBox="0 0 30 30" fill="none" xmlns="http://www.w3.org/2000/svg">
<path d="M15 30C23.2852 30 30 23.2852 30 15C30 6.71484 23.2852 0 15 0C6.71484 0 0 6.71484 0 15C0 23.2852 6.71484 30 15 30ZM10.2539 10.2539C10.8047 9.70312 11.6953 9.70312 12.2402 10.2539L14.9941 13.0078L17.748 10.2539C18.2988 9.70312 19.1895 9.70312 19.7344 10.2539C20.2793 10.8047 20.2852 11.6953 19.7344 12.2402L16.9805 14.9941L19.7344 17.748C20.2852 18.2988 20.2852 19.1895 19.7344 19.7344C19.1836 20.2793 18.293 20.2852 17.748 19.7344L14.9941 16.9805L12.2402 19.7344C11.6895 20.2852 10.7988 20.2852 10.2539 19.7344C9.70898 19.1836 9.70312 18.293 10.2539 17.748L13.0078 14.9941L10.2539 12.2402C9.70312 11.6895 9.70312 10.7988 10.2539 10.2539Z" fill="#D11A2A"/>
</svg>

<svg xmlns="http://www.w3.org/2000/svg" width="30" height="30" fill="none"><path fill="#D11A2A" d="M15 30c8.285 0 15-6.715 15-15S23.285 0 15 0 0 6.715 0 15s6.715 15 15 15Zm-4.746-19.746a1.4 1.4 0 0 1 1.986 0l2.754 2.754 2.754-2.754a1.406 1.406 0 0 1 1.986 1.986l-2.754 2.754 2.754 2.754a1.406 1.406 0 0 1-1.986 1.986l-2.754-2.754-2.754 2.754a1.4 1.4 0 0 1-1.986 0 1.406 1.406 0 0 1 0-1.986l2.754-2.754-2.754-2.754a1.4 1.4 0 0 1 0-1.986Z"/></svg>
